src/access/icon/gas.svg

<svg width="33" height="33" viewBox="0 0 33 33" fill="none" xmlns="http://www.w3.org/2000/svg">
<path d="M21.2104 6.25083V0.526596C21.2104 0.235774 20.9747 0 20.6838 0H12.3159C12.0251 0 11.7893 0.235774 11.7893 0.526596V6.25083C8.34036 6.52024 5.61646 9.41272 5.61646 12.9296V26.0634C5.61646 28.5505 7.5049 30.6041 9.92309 30.8674V32.4734C9.92309 32.7642 10.1589 33 10.4497 33H22.55C22.8408 33 23.0766 32.7642 23.0766 32.4734V30.8674C25.4948 30.6041 27.3833 28.5505 27.3833 26.0634V12.9296C27.3833 9.41279 24.6593 6.52031 21.2104 6.25083ZM20.1572 1.05319V6.23019H17.0265V5.03208C17.5877 4.81877 17.9882 4.2768 17.9882 3.64173C17.9882 2.82101 17.3206 2.15336 16.4999 2.15336C15.6791 2.15336 15.0115 2.82101 15.0115 3.64173C15.0115 4.2768 15.412 4.81877 15.9733 5.03208V6.23026H12.8425V1.05319H20.1572ZM16.4999 4.07683C16.2599 4.07683 16.0647 3.88164 16.0647 3.64166C16.0647 3.40167 16.2599 3.20648 16.4999 3.20648C16.7398 3.20648 16.935 3.40167 16.935 3.64166C16.935 3.88164 16.7398 4.07683 16.4999 4.07683ZM12.3159 7.28338H20.6838C23.6196 7.28338 26.0381 9.53574 26.3046 12.403H10.3558C10.065 12.403 9.82922 12.6388 9.82922 12.9296C9.82922 13.2204 10.065 13.4562 10.3558 13.4562H26.3301V25.5368H6.66965V13.4562H8.24943C8.54026 13.4562 8.77603 13.2204 8.77603 12.9296C8.77603 12.6388 8.54026 12.403 8.24943 12.403H6.69506C6.96159 9.53581 9.38014 7.28338 12.3159 7.28338ZM10.9763 31.9468V30.8966H22.0234V31.9468H10.9763ZM22.55 29.8434H10.4497C8.54412 29.8434 6.96426 28.4258 6.70714 26.59H26.2926C26.0354 28.4258 24.4556 29.8434 22.55 29.8434Z" fill="white"/>
<path d="M16.4997 24.4837C17.6307 24.4837 18.6188 24.0905 19.3571 23.3464C20.1211 22.5765 20.5542 21.481 20.5455 20.3409C20.5291 18.2274 19.0308 16.3387 18.967 16.2593C18.8634 16.1305 18.7057 16.0581 18.5403 16.0628C18.3751 16.0678 18.2219 16.1502 18.1265 16.2851C18.1265 16.2851 18.084 16.3452 18.0205 16.4351C17.7627 15.8731 17.3808 15.1877 16.8776 14.6693C16.7785 14.5671 16.6421 14.5095 16.4998 14.5095C16.3575 14.5095 16.2211 14.5671 16.122 14.6693C15.6188 15.1877 15.237 15.8731 14.9791 16.4351C14.9157 16.3452 14.8731 16.2851 14.8731 16.2851C14.7778 16.1502 14.6245 16.0678 14.4593 16.0628C14.2947 16.057 14.1361 16.1305 14.0326 16.2593C13.9689 16.3387 12.4705 18.2274 12.4542 20.3409C12.4454 21.481 12.8784 22.5765 13.6425 23.3464C14.3806 24.0904 15.3688 24.4837 16.4997 24.4837ZM14.4502 17.5113L14.5756 17.6886C14.7288 17.9052 14.8499 18.0763 15.1437 18.0572C15.3507 18.0439 15.5306 17.9103 15.6031 17.7159C15.6047 17.7117 15.6089 17.7 15.6151 17.6812C15.7094 17.3987 16.0124 16.5622 16.4997 15.8658C16.9871 16.5622 17.29 17.3987 17.3843 17.6812C17.3907 17.7001 17.3948 17.7118 17.3964 17.7159C17.4875 17.9602 17.7438 18.101 17.9987 18.0469C18.2006 18.0042 18.2706 17.9053 18.4239 17.6886L18.5492 17.5113C18.9429 18.1539 19.4836 19.2371 19.4922 20.3491C19.4989 21.2104 19.1772 22.0325 18.6095 22.6046C18.0733 23.1449 17.3438 23.4305 16.4997 23.4305C15.6557 23.4305 14.9261 23.1449 14.39 22.6046C13.8223 22.0325 13.5006 21.2104 13.5073 20.3491C13.5158 19.237 14.0567 18.1537 14.4502 17.5113Z" fill="white"/>
</svg>

<svg xmlns="http://www.w3.org/2000/svg" width="33" height="33" fill="none" viewBox="0 0 33 33">
  <g class="gas">
    <g class="fill">
      <path fill="#fff" d="M21.21 6.25V.528A.527.527 0 0020.684 0h-8.368a.527.527 0 00-.527.527V6.25c-3.449.27-6.173 3.162-6.173 6.679v13.133a4.84 4.84 0 004.307 4.804v1.606c0 .291.236.527.527.527h12.1c.29 0 .527-.236.527-.527v-1.606a4.84 4.84 0 004.306-4.804V12.93c0-3.517-2.724-6.41-6.173-6.68zm-1.053-5.197V6.23h-3.13V5.032a1.49 1.49 0 00.961-1.39A1.49 1.49 0 0016.5 2.153a1.49 1.49 0 00-1.489 1.489c0 .635.401 1.177.962 1.39V6.23h-3.13V1.053h7.314zM16.5 4.077a.436.436 0 110-.871.436.436 0 010 .87zm-4.184 3.206h8.368a5.653 5.653 0 015.62 5.12H10.357a.527.527 0 000 1.053H26.33v12.08H6.67v-12.08h1.58a.527.527 0 000-1.053H6.694a5.653 5.653 0 015.62-5.12zm-1.34 24.664v-1.05h11.047v1.05H10.976zm11.574-2.104h-12.1a3.785 3.785 0 01-3.743-3.253h19.586a3.785 3.785 0 01-3.743 3.253z"/>
      <path fill="#fff" d="M16.5 24.484c1.13 0 2.119-.394 2.857-1.138.764-.77 1.197-1.865 1.189-3.005-.017-2.114-1.515-4.002-1.579-4.082a.528.528 0 00-.84.026l-.106.15c-.258-.562-.64-1.247-1.143-1.766a.527.527 0 00-.756 0c-.503.519-.885 1.204-1.143 1.766l-.106-.15a.527.527 0 00-.84-.026c-.064.08-1.562 1.968-1.579 4.082-.009 1.14.425 2.235 1.189 3.005.738.744 1.726 1.138 2.857 1.138zm-2.05-6.973l.126.178c.153.216.274.387.568.368a.526.526 0 00.46-.341c0-.004.005-.016.011-.035.095-.282.397-1.119.885-1.815.487.696.79 1.533.884 1.815l.012.035a.527.527 0 00.603.331c.202-.043.272-.142.425-.358l.125-.178c.394.643.935 1.726.943 2.838.007.861-.315 1.683-.882 2.256-.537.54-1.266.826-2.11.826-.844 0-1.574-.286-2.11-.826-.568-.573-.89-1.395-.883-2.256.009-1.112.55-2.195.943-2.838z"/>
    </g>
  </g>
</svg>
